proprietary/assets/icons/vervoersmiddelen/ambulance.svg

<svg height="64" viewBox="0 0 64 64" width="64" xmlns="http://www.w3.org/2000/svg"><path d="m0 0h64v64h-64z" fill="none"/><path d="m57.1683 24.0713c-.7169-.1392-2.2845.0054-3.5138.1736-.7028-5.3007-2.2863-13.5054-2.9026-15.21-.442-1.2223-1.6048-2.0349-2.9046-2.0349h-.1121c.0909-.4248.0829-.8684-.0577-1.2906l-.5527-1.6581c-.409-1.227-1.5527-2.0513-2.8461-2.0513h-24.5574c-1.2934 0-2.4371.8243-2.8461 2.0513l-.5527 1.6581c-.1407.4222-.1487.8658-.0577 1.2906h-.1121c-1.2998 0-2.4626.8126-2.9046 2.0349-.6163 1.7046-2.1998 9.9093-2.9026 15.21-1.2292-.1682-2.7969-.3129-3.5138-.1736-1.687.3266-2.0039 2.0824-1.5357 3.0806.7175 1.5298 3.3584 2.9637 4.704 3.6152v23.5729s0 3.9669.4121 5.6264c.1494.6038.8115 1.0336 1.5742 1.0336h6.0273c.7628 0 1.4248-.4298 1.5742-1.0336.2517-1.0135.3492-3.041.3873-4.4659l-5.7101-1.1364c-.3172-.1017-.2708-.3079-.2499-.3641h35.9696c.0209.0562.0673.2623-.2499.3641l-5.7101 1.1364c.0381 1.4249.1356 3.4524.3873 4.4659.1495.6038.8116 1.0336 1.5743 1.0336h6.0273c.7628 0 1.4248-.4298 1.5742-1.0336.4122-1.6595.4122-5.6264.4122-5.6264s0-16.7712 0-23.5729c1.3456-.6515 3.9865-2.0854 4.704-3.6152.4682-.9982.1513-2.754-1.5357-3.0806zm-20.1683-20.0713h7.3715c.4348 0 .8207.2632.9582.6756l.5582 1.6747c.102.3058-.1088.6101-.4179.6497h-8.47zm-18.8879 2.3503.5582-1.6747c.1375-.4124.5234-.6756.9582-.6756h7.3715v3h-8.47c-.3091-.0396-.5199-.3439-.4179-.6497zm-2.4337 7.4889c.0957-.7657.2484-1.0201 1.0201-1.0201h30.603c.7717 0 .9244.2543 1.0201 1.0201l2.0402 13.2613c.1466 1.1729-1.0201 1.8085-2.1824 2.1614 0 0-8.1576 1.919-16.1794 1.919s-16.1794-1.919-16.1794-1.919c-1.1623-.353-2.329-.9885-2.1824-2.1614zm26.3216 20.1608-5 5h-4l5-5zm-11 5h-4l-5-5h4zm-9.2214 8.953-6.3004-.5036c-1.7068-.1364-2.7528-1.4985-3.0657-2.9922l-.2597-1.8045c-.1604-1.116.9859-2.0632 2.1159-1.7487l5.0999 1.4169c1.1091.4269 1.9471 1.2936 2.3045 2.3814l.6991 2.5962c.0929.3442-.2174.6859-.5936.6545zm-1.7786-8.953-5-5h4l5 5zm4.98 4.3267c0-.186.1809-.3367.404-.3367h3.2321c.2231 0 .404.1507.404.3367v1.3467c0 .1859-.1809.3367-.404.3367h-3.2321c-.2231 0-.404-.1508-.404-.3367zm14.02 8.6733h-6.9974-.0052-6.9974v-3h6.9974.0052 6.9974zm.02-7.3267c0 .1859-.1809.3367-.4041.3367h-3.232c-.2231 0-.404-.1508-.404-.3367v-1.3467c0-.186.1809-.3367.404-.3367h3.232c.2231 0 .4041.1507.4041.3367zm5.98-10.6733h4l-5 5h-4zm6.8472 8.6527-.2597 1.8045c-.313 1.4937-1.3589 2.8558-3.0658 2.9922l-6.3004.5036c-.3762.0314-.6865-.3103-.5935-.6546l.6991-2.5962c.3574-1.0878 1.1954-1.9545 2.3045-2.3814l5.0999-1.4169c1.13-.3144 2.2763.6327 2.1159 1.7488z"/></svg>

<?xml version="1.0" encoding="utf-8"?>
<!-- Generator: Adobe Illustrator 18.1.0, SVG Export Plug-In . SVG Version: 6.00 Build 0)  -->
<svg version="1.2" baseProfile="tiny" xmlns="http://www.w3.org/2000/svg" xmlns:xlink="http://www.w3.org/1999/xlink" x="0px"
	 y="0px" width="64px" height="64px" viewBox="0 0 64 64" xml:space="preserve">
<g id="_x36_4px_Boxes">
	<rect fill="none" width="64" height="64"/>
</g>
<g id="Production">
	<g>
		<path d="M57.1683,24.0713c-0.7169-0.1392-2.2845,0.0054-3.5138,0.1736c-0.7028-5.3007-2.2863-13.5054-2.9026-15.21
			C50.3099,7.8126,49.1471,7,47.8473,7h-0.1121c0.0909-0.4248,0.0829-0.8684-0.0577-1.2906l-0.5527-1.6581
			C46.7158,2.8243,45.5721,2,44.2787,2H19.7213c-1.2934,0-2.4371,0.8243-2.8461,2.0513l-0.5527,1.6581
			C16.1818,6.1316,16.1738,6.5752,16.2648,7h-0.1121c-1.2998,0-2.4626,0.8126-2.9046,2.0349
			c-0.6163,1.7046-2.1998,9.9093-2.9026,15.21c-1.2292-0.1682-2.7969-0.3129-3.5138-0.1736
			c-1.687,0.3266-2.0039,2.0824-1.5357,3.0806c0.7175,1.5298,3.3584,2.9637,4.704,3.6152c0,6.8016,0,23.5729,0,23.5729
			s0,3.9669,0.4121,5.6264C10.5615,60.5702,11.2236,61,11.9863,61h6.0273c0.7628,0,1.4248-0.4298,1.5742-1.0336
			c0.2517-1.0135,0.3492-3.041,0.3873-4.4659l-5.7101-1.1364c-0.3172-0.1017-0.2708-0.3079-0.2499-0.3641h35.9696
			c0.0209,0.0562,0.0673,0.2623-0.2499,0.3641l-5.7101,1.1364c0.0381,1.4249,0.1356,3.4524,0.3873,4.4659
			C44.5615,60.5702,45.2236,61,45.9863,61h6.0273c0.7628,0,1.4248-0.4298,1.5742-1.0336C54,58.3069,54,54.34,54,54.34
			s0-16.7712,0-23.5729c1.3456-0.6515,3.9865-2.0854,4.704-3.6152C59.1722,26.1537,58.8553,24.3979,57.1683,24.0713z M37,4h7.3715
			c0.4348,0,0.8207,0.2632,0.9582,0.6756l0.5582,1.6747C45.9899,6.6561,45.7791,6.9604,45.47,7H37V4z M18.1121,6.3503l0.5582-1.6747
			C18.8078,4.2632,19.1937,4,19.6285,4H27v3h-8.47C18.2209,6.9604,18.0101,6.6561,18.1121,6.3503z M15.6784,13.8392
			c0.0957-0.7657,0.2484-1.0201,1.0201-1.0201h30.603c0.7717,0,0.9244,0.2543,1.0201,1.0201l2.0402,13.2613
			c0.1466,1.1729-1.0201,1.8085-2.1824,2.1614c0,0-8.1576,1.919-16.1794,1.919s-16.1794-1.919-16.1794-1.919
			c-1.1623-0.353-2.329-0.9885-2.1824-2.1614L15.6784,13.8392z M42,34l-5,5h-4l5-5H42z M31,39h-4l-5-5h4L31,39z M21.7786,47.953
			l-6.3004-0.5036c-1.7068-0.1364-2.7528-1.4985-3.0657-2.9922l-0.2597-1.8045c-0.1604-1.116,0.9859-2.0632,2.1159-1.7487
			l5.0999,1.4169c1.1091,0.4269,1.9471,1.2936,2.3045,2.3814l0.6991,2.5962C22.4651,47.6427,22.1548,47.9844,21.7786,47.953z M20,39
			l-5-5h4l5,5H20z M24.98,43.3267c0-0.186,0.1809-0.3367,0.404-0.3367h3.2321c0.2231,0,0.404,0.1507,0.404,0.3367v1.3467
			c0,0.1859-0.1809,0.3367-0.404,0.3367H25.384c-0.2231,0-0.404-0.1508-0.404-0.3367V43.3267z M39,52h-6.9974h-0.0052H25v-3h6.9974
			h0.0052H39V52z M39.02,44.6733c0,0.1859-0.1809,0.3367-0.4041,0.3367h-3.232c-0.2231,0-0.404-0.1508-0.404-0.3367v-1.3467
			c0-0.186,0.1809-0.3367,0.404-0.3367h3.232c0.2231,0,0.4041,0.1507,0.4041,0.3367V44.6733z M45,34h4l-5,5h-4L45,34z
			 M51.8472,42.6527l-0.2597,1.8045c-0.313,1.4937-1.3589,2.8558-3.0658,2.9922l-6.3004,0.5036
			c-0.3762,0.0314-0.6865-0.3103-0.5935-0.6546l0.6991-2.5962c0.3574-1.0878,1.1954-1.9545,2.3045-2.3814l5.0999-1.4169
			C50.8613,40.5895,52.0076,41.5366,51.8472,42.6527z"/>
	</g>
</g>
</svg>
